assets/icons/librescoot-main-battery-asleep.svg

<svg xmlns="http://www.w3.org/2000/svg" width="144" height="144" fill="none" viewBox="0 0 144 144"><path fill="#fff" d="M96.6006 16.6455h-17.75L78.4961 17H58.1943l-2.9062 3h20.208l-4.6455 4.6455V28H47.5381l-3.6651 3.7832L39.9678 28H31c-2.5817 0-4.707 1.9565-4.9727 4.4678C26.259 34.4565 27.9491 36 30 36h21.4229l-4.4766 4.4766V44H30l-.3096-.0039c-1.2917-.0327-2.5312-.2737-3.6904-.6836V118c0 2.761 2.2386 5 5 5h82c2.761 0 5-2.239 5-5V58.001h8V118l-.004.336c-.175 6.913-5.747 12.485-12.66 12.66L113 131H31l-.3359-.004c-6.9129-.175-12.4849-5.747-12.6602-12.66L18 118V33c0-.1711.0042-.3413.0107-.5107A12 12 0 0 1 18 32c0-6.5239 5.2061-11.8319 11.6904-11.9961L30 20h14.1494L54.8057 9h34.3886zM126 50.001h-8V50h8zm-17.351-29.3809h9.165l.003.001h-9.168z"/><path fill="#fff" d="M78.318 56.088v-5.2L93.712 31.83v-.225H78.85v-6.96h25.364v5.67L89.761 48.903v.225h14.985v6.96zm-23.771 7.97v-3.9l11.546-14.294v-.169H54.946v-5.22h19.023v4.253l-10.84 13.941v.169h11.239v5.22zM108.011 50v-6.239l18.473-22.87v-.27H108.65v-8.352h30.436v6.805l-17.343 22.305v.27h17.981V50z"/></svg>

<svg width="144" height="144" viewBox="0 0 144 144" fill="none" xmlns="http://www.w3.org/2000/svg">
<path d="M96.6006 16.6455H78.8506L78.4961 17H58.1943L55.2881 20H75.4961L70.8506 24.6455V28H47.5381L43.873 31.7832L39.9678 28H31C28.4183 28 26.293 29.9565 26.0273 32.4678C26.259 34.4565 27.9491 36 30 36H51.4229L46.9463 40.4766V44H30L29.6904 43.9961C28.3987 43.9634 27.1592 43.7224 26 43.3125V118C26 120.761 28.2386 123 31 123H113C115.761 123 118 120.761 118 118V58.001H126V118L125.996 118.336C125.821 125.249 120.249 130.821 113.336 130.996L113 131H31L30.6641 130.996C23.7512 130.821 18.1792 125.249 18.0039 118.336L18 118V33C18 32.8289 18.0042 32.6587 18.0107 32.4893C18.0042 32.327 18 32.1639 18 32C18 25.4761 23.2061 20.1681 29.6904 20.0039L30 20H44.1494L54.8057 9H89.1943L96.6006 16.6455ZM126 50.001H118V50H126V50.001ZM108.649 20.6201H117.814C117.815 20.6204 117.816 20.6208 117.817 20.6211H108.649V20.6201Z" fill="white"/>
<path d="M78.3179 56.0881V50.8885L93.712 31.8301V31.6049H78.8501V24.6448H104.214V30.3152L89.7611 48.9028V49.128H104.746V56.0881H78.3179Z" fill="white"/>
<path d="M54.5468 64.0584V60.1587L66.0923 45.8649V45.696H54.9459V40.4759H73.9685V44.7287L63.1292 58.6694V58.8383H74.3677V64.0584H54.5468Z" fill="white"/>
<path d="M108.011 50V43.7605L126.484 20.8904V20.6202H108.65V12.2681H139.086V19.0726L121.743 41.3777V41.6479H139.724V50H108.011Z" fill="white"/>
</svg>
